build/img/SVG/search.svg

<?xml version="1.0" encoding="utf-8"?>
<!-- Generated by IcoMoon.io -->
<!DOCTYPE svg PUBLIC "-//W3C//DTD SVG 1.1//EN" "http://www.w3.org/Graphics/SVG/1.1/DTD/svg11.dtd">
<svg version="1.1" xmlns="http://www.w3.org/2000/svg" xmlns:xlink="http://www.w3.org/1999/xlink" width="52" height="56" viewBox="0 0 52 56">
<path fill="#444444" d="M36 26q0-5.781-4.109-9.891t-9.891-4.109-9.891 4.109-4.109 9.891 4.109 9.891 9.891 4.109 9.891-4.109 4.109-9.891zM52 52q0 1.625-1.187 2.813t-2.813 1.187q-1.687 0-2.813-1.187l-10.719-10.688q-5.594 3.875-12.469 3.875-4.469 0-8.547-1.734t-7.031-4.687-4.687-7.031-1.734-8.547 1.734-8.547 4.687-7.031 7.031-4.687 8.547-1.734 8.547 1.734 7.031 4.687 4.687 7.031 1.734 8.547q0 6.875-3.875 12.469l10.719 10.719q1.156 1.156 1.156 2.813z"></path>
</svg>

<svg xmlns="http://www.w3.org/2000/svg" width="52" height="56" viewBox="0 0 52 56"><path fill="#444" d="M36 26q0-5.78-4.11-9.89T22 12t-9.89 4.11T8 26t4.11 9.89T22 40t9.89-4.11T36 26zm16 26q0 1.625-1.187 2.813T48 56q-1.687 0-2.813-1.187l-10.72-10.688Q28.875 48 22 48q-4.47 0-8.548-1.734t-7.03-4.687-4.688-7.032T0 26t1.734-8.546 4.687-7.03 7.032-4.688T22 4.002t8.546 1.734 7.03 4.687 4.688 7.03 1.734 8.548q0 6.876-3.875 12.47l10.72 10.72q1.155 1.155 1.155 2.812z"/></svg>
